assets/svg/medium.svg

<svg width="57" height="32" viewBox="0 0 57 32" fill="none" xmlns="http://www.w3.org/2000/svg">
<path d="M31.7544 15.9997C31.7544 24.8363 24.6459 32 15.8769 32C7.10793 32 0 24.8384 0 15.9997C0 7.16106 7.10847 0 15.8769 0C24.6454 0 31.7544 7.16321 31.7544 15.9997ZM49.1722 15.9997C49.1722 24.3182 45.6177 31.0611 41.2335 31.0611C36.8492 31.0611 33.2947 24.3161 33.2947 15.9997C33.2947 7.68339 36.8492 0.938367 41.2335 0.938367C45.6177 0.938367 49.1722 7.68339 49.1722 15.9997ZM56.2963 15.9997C56.2963 23.4527 55.0461 29.4941 53.5041 29.4941C51.9622 29.4941 50.712 23.4506 50.712 15.9997C50.712 8.54891 51.9622 2.50537 53.5047 2.50537C55.0471 2.50537 56.2963 8.54729 56.2963 15.9997Z" fill="#F6F5F5"/>
</svg>

<svg fill="none" viewBox="0 0 57 32" xmlns="http://www.w3.org/2000/svg">
<path d="m31.754 16c0 8.8366-7.1085 16-15.878 16-8.769 0-15.877-7.1616-15.877-16 0-8.8386 7.1085-16 15.877-16 8.7685 0 15.878 7.1632 15.878 16zm17.418 0c0 8.3185-3.5545 15.061-7.9387 15.061-4.3843 0-7.9388-6.745-7.9388-15.061 0-8.3163 3.5545-15.061 7.9388-15.061 4.3842 0 7.9387 6.745 7.9387 15.061zm7.1241 0c0 7.453-1.2502 13.494-2.7922 13.494-1.5419 0-2.7921-6.0435-2.7921-13.494 0-7.4508 1.2502-13.494 2.7927-13.494 1.5424 0 2.7916 6.0419 2.7916 13.494z" fill="#F6F5F5"/>
</svg>
